X: 47
T: 37,000 Feet
R: reel
M: 4/4
K: Amajor
|:A2.e2 z2.c2|z2.e2 z2.c2|BcBA F2 Bc|BAFE FGAB|
A2.e2 z2.c2|z2.e2 z2.c2|ABcd e2 f2|1 ecBc A2 (3AAA:|2 ecBc A2 (3AAA||
|:A2.a2 z2.f2|z2.e2 z2.c2|BcBA F2Bc|BAFE FGAB|
A2.a2 z2.f2|z2.e2 z2.c2|ABcd e2f2|1 ecBc A2(3AAA:|2 ecBc A4||

